resources/svg/file-excel-2-line.svg

<svg fill="currentColor" viewBox="0 0 24 24" xmlns="http://www.w3.org/2000/svg"><path d="M2.85858 2.87756L15.4293 1.08175C15.7027 1.0427 15.9559 1.23265 15.995 1.50601C15.9983 1.52943 16 1.55306 16 1.57672V22.4237C16 22.6999 15.7761 22.9237 15.5 22.9237C15.4763 22.9237 15.4527 22.922 15.4293 22.9187L2.85858 21.1229C2.36593 21.0525 2 20.6306 2 20.1329V3.86751C2 3.36986 2.36593 2.94794 2.85858 2.87756ZM4 4.73481V19.2656L14 20.6942V3.30624L4 4.73481ZM17 19.0002H20V5.00022H17V3.00022H21C21.5523 3.00022 22 3.44793 22 4.00022V20.0002C22 20.5525 21.5523 21.0002 21 21.0002H17V19.0002ZM10.2 12.0002L13 16.0002H10.6L9 13.7145L7.39999 16.0002H5L7.8 12.0002L5 8.00022H7.39999L9 10.2859L10.6 8.00022H13L10.2 12.0002Z"/></svg>

<svg xmlns="http://www.w3.org/2000/svg" viewBox="0 0 24 24" fill="currentColor">
    <g>
        <path fill="none" d="M0 0h24v24H0z"/>
        <path d="M2.859 2.877l12.57-1.795a.5.5 0 0 1 .571.495v20.846a.5.5 0 0 1-.57.495L2.858 21.123a1 1 0 0 1-.859-.99V3.867a1 1 0 0 1 .859-.99zM4 4.735v14.53l10 1.429V3.306L4 4.735zM17 19h3V5h-3V3h4a1 1 0 0 1 1 1v16a1 1 0 0 1-1 1h-4v-2zm-6.8-7l2.8 4h-2.4L9 13.714 7.4 16H5l2.8-4L5 8h2.4L9 10.286 10.6 8H13l-2.8 4z"/>
    </g>
</svg>
